assets/icons/life_available.svg

<?xml version="1.0" encoding="UTF-8"?>
<!-- Generated by Pixelmator Pro 3.3.8 -->
<svg width="26" height="26" viewBox="0 0 26 26" xmlns="http://www.w3.org/2000/svg">
    <g id="Group">
        <path id="Path" fill="#ffffff" stroke="none" d="M 0.284201 8.679802 C 0.284201 14.2374 4.933901 19.698799 12.252399 24.389801 C 12.568802 24.596199 12.9953 24.7887 13.284199 24.7887 C 13.573101 24.7887 13.9995 24.596199 14.315899 24.389801 C 21.634399 19.698799 26.284199 14.2374 26.284199 8.679802 C 26.284199 4.029999 23.078899 0.742199 18.8419 0.742199 C 16.406898 0.742199 14.453499 1.884003 13.284199 3.644798 C 12.128601 1.897697 10.1614 0.742199 7.7265 0.742199 C 3.4895 0.742199 0.284201 4.029999 0.284201 8.679802 Z M 2.554001 8.679802 C 2.554001 5.281898 4.768801 2.998299 7.754 2.998299 C 10.1752 2.998299 11.5508 4.4977 12.376202 5.7771 C 12.733898 6.2999 12.9678 6.451202 13.284199 6.451202 C 13.600601 6.451202 13.8069 6.286102 14.192101 5.7771 C 15.072498 4.511497 16.406898 2.998299 18.814301 2.998299 C 21.7995 2.998299 24.014301 5.281898 24.014301 8.679802 C 24.014301 13.4533 19.006901 18.625801 13.545601 22.2575 C 13.4217 22.340099 13.339199 22.3951 13.284199 22.3951 C 13.229198 22.3951 13.146599 22.340099 13.0228 22.2575 C 7.561399 18.625801 2.554001 13.4533 2.554001 8.679802 Z"/>
    </g>
</svg>

<svg xmlns="http://www.w3.org/2000/svg" width="26" height="26">
    <path fill="#fff" d="M.284 8.68c0 5.557 4.65 11.019 11.968 15.71.317.206.743.399 1.032.399.29 0 .715-.193 1.032-.4 7.318-4.69 11.968-10.152 11.968-15.71 0-4.649-3.205-7.937-7.442-7.937-2.435 0-4.389 1.142-5.558 2.903C12.13 1.898 10.161.742 7.726.742 3.49.742.284 4.03.284 8.68Zm2.27 0c0-3.398 2.215-5.682 5.2-5.682 2.421 0 3.797 1.5 4.622 2.78.358.522.592.673.908.673.317 0 .523-.165.908-.674.88-1.266 2.215-2.779 4.622-2.779 2.985 0 5.2 2.284 5.2 5.682 0 4.773-5.007 9.946-10.468 13.578-.124.082-.207.137-.262.137-.055 0-.137-.055-.261-.137C7.56 18.625 2.554 13.453 2.554 8.68Z"/>
</svg>
